public/assets/instagram-gray.svg

<svg width="21" height="20" viewBox="0 0 21 20" fill="none" xmlns="http://www.w3.org/2000/svg">
<path d="M10.1177 5C9.11912 5 8.14294 5.29324 7.31263 5.84265C6.48231 6.39206 5.83516 7.17295 5.45301 8.08658C5.07086 9.00021 4.97087 10.0055 5.16569 10.9755C5.36051 11.9454 5.84139 12.8363 6.54751 13.5355C7.25363 14.2348 8.15329 14.711 9.13271 14.9039C10.1121 15.0969 11.1273 14.9978 12.0499 14.6194C12.9725 14.241 13.7611 13.6001 14.3159 12.7779C14.8707 11.9556 15.1668 10.9889 15.1668 10C15.1668 8.67392 14.6348 7.40215 13.6879 6.46447C12.7411 5.52678 11.4568 5 10.1177 5V5ZM10.1177 13C9.51856 13 8.93285 12.8241 8.43467 12.4944C7.93648 12.1648 7.54819 11.6962 7.3189 11.1481C7.08961 10.5999 7.02962 9.99667 7.14651 9.41473C7.2634 8.83279 7.55192 8.29824 7.9756 7.87868C8.39927 7.45912 8.93906 7.1734 9.52672 7.05764C10.1144 6.94189 10.7235 7.0013 11.277 7.22836C11.8306 7.45542 12.3037 7.83994 12.6366 8.33329C12.9695 8.82664 13.1472 9.40666 13.1472 10C13.1472 10.7956 12.828 11.5587 12.2599 12.1213C11.6917 12.6839 10.9212 13 10.1177 13ZM15.1668 4C14.9671 4 14.7718 4.05865 14.6058 4.16853C14.4397 4.27841 14.3103 4.43459 14.2338 4.61732C14.1574 4.80004 14.1374 5.00111 14.1764 5.19509C14.2153 5.38907 14.3115 5.56725 14.4527 5.70711C14.594 5.84696 14.7739 5.9422 14.9698 5.98079C15.1657 6.01937 15.3687 5.99957 15.5532 5.92388C15.7377 5.84819 15.8955 5.72002 16.0064 5.55557C16.1174 5.39112 16.1766 5.19778 16.1766 5C16.1766 4.73478 16.0702 4.48043 15.8808 4.29289C15.6915 4.10536 15.4346 4 15.1668 4ZM20.1552 6.24C20.1385 5.38542 19.9746 4.53995 19.6705 3.74C19.3886 3.01207 18.9552 2.35099 18.3985 1.7997C17.8418 1.2484 17.1742 0.819216 16.4391 0.54C15.6314 0.238899 14.7776 0.0765676 13.9146 0.0599999C12.9351 -5.58794e-08 12.612 0 10.1177 0C7.6235 0 7.30036 -5.58794e-08 6.32084 0.0599999C5.45788 0.0765676 4.60411 0.238899 3.79631 0.54C3.06124 0.819216 2.39368 1.2484 1.83698 1.7997C1.28027 2.35099 0.846876 3.01207 0.564921 3.74C0.260866 4.53995 0.0969416 5.38542 0.0802114 6.24C0.0196227 7.22 0.0196228 7.54 0.0196228 10C0.0196228 12.46 0.0196227 12.78 0.0802114 13.76C0.0969416 14.6146 0.260866 15.4601 0.564921 16.26C0.846876 16.9879 1.28027 17.649 1.83698 18.2003C2.39368 18.7516 3.06124 19.1808 3.79631 19.46C4.60411 19.7611 5.45788 19.9234 6.32084 19.94C7.33065 19.94 7.6235 20 10.1177 20C12.612 20 12.9351 20 13.9146 19.94C14.7776 19.9234 15.6314 19.7611 16.4391 19.46C17.1742 19.1808 17.8418 18.7516 18.3985 18.2003C18.9552 17.649 19.3886 16.9879 19.6705 16.26C19.9746 15.4601 20.1385 14.6146 20.1552 13.76C20.1552 12.76 20.2158 12.46 20.2158 10C20.2158 7.54 20.2158 7.22 20.1552 6.24ZM18.1356 13.67C18.1179 14.3046 17.9986 14.9324 17.7822 15.53C17.6032 16.0023 17.3204 16.4293 16.9541 16.78C16.6022 17.1428 16.1701 17.4201 15.6919 17.59C15.087 17.8131 14.4488 17.9348 13.8035 17.95C12.8543 17.95 12.5615 18 10.1076 18C7.65379 18 7.37104 18 6.42182 18C5.77758 17.9835 5.14012 17.8654 4.53348 17.65C4.0565 17.4728 3.62532 17.1927 3.27121 16.83C2.90481 16.4814 2.62485 16.0536 2.45327 15.58C2.22889 14.9842 2.10604 14.3557 2.08973 13.72C2.08973 12.72 2.08973 12.47 2.08973 10.05C2.08973 7.63 2.08973 7.34 2.08973 6.38C2.10714 5.74121 2.22994 5.10954 2.45327 4.51C2.62752 4.04063 2.90721 3.61662 3.27121 3.27C3.62321 2.90715 4.05524 2.62992 4.53348 2.46C5.13834 2.2369 5.77654 2.11523 6.42182 2.1C7.37104 2 7.66389 2 10.1177 2C12.5716 2 12.8644 2 13.8136 2C14.4621 2.01633 15.1034 2.13794 15.7121 2.36C16.1861 2.53256 16.6142 2.80953 16.9642 3.17C17.3307 3.51858 17.6106 3.94641 17.7822 4.42C18.0294 5.02856 18.1694 5.67458 18.1962 6.33C18.1962 7.33 18.2467 7.58 18.2467 10C18.2467 12.42 18.1962 12.71 18.1962 13.67H18.1356Z" fill="#6B7280"/>
</svg>

<svg width="21" height="20" fill="none" xmlns="http://www.w3.org/2000/svg"><path d="M10.118 5c-.999 0-1.975.293-2.805.843a5.01 5.01 0 0 0-1.86 2.244 4.955 4.955 0 0 0-.287 2.889c.195.97.675 1.86 1.382 2.56a5.064 5.064 0 0 0 2.585 1.368c.98.193 1.994.094 2.917-.285a5.039 5.039 0 0 0 2.266-1.841 4.966 4.966 0 0 0-.628-6.314A5.074 5.074 0 0 0 10.118 5Zm0 8a3.05 3.05 0 0 1-1.683-.506 3.007 3.007 0 0 1-1.116-1.346 2.973 2.973 0 0 1 .657-3.27 3.057 3.057 0 0 1 3.301-.65 3.023 3.023 0 0 1 1.36 1.105 2.98 2.98 0 0 1-.377 3.788 3.045 3.045 0 0 1-2.142.879Zm5.049-9a1.017 1.017 0 0 0-.933.617.99.99 0 0 0 .219 1.09A1.013 1.013 0 0 0 16.177 5a.995.995 0 0 0-.296-.707A1.015 1.015 0 0 0 15.167 4Zm4.988 2.24a7.444 7.444 0 0 0-.485-2.5 5.554 5.554 0 0 0-1.272-1.94A5.62 5.62 0 0 0 16.44.54a7.648 7.648 0 0 0-2.524-.48C12.935 0 12.612 0 10.118 0 7.623 0 7.3 0 6.32.06a7.65 7.65 0 0 0-2.525.48A5.62 5.62 0 0 0 1.837 1.8 5.555 5.555 0 0 0 .565 3.74a7.446 7.446 0 0 0-.485 2.5C.02 7.22.02 7.54.02 10s0 2.78.06 3.76c.017.855.18 1.7.485 2.5a5.555 5.555 0 0 0 1.272 1.94 5.62 5.62 0 0 0 1.96 1.26 7.65 7.65 0 0 0 2.524.48c1.01 0 1.303.06 3.797.06s2.817 0 3.797-.06a7.65 7.65 0 0 0 2.524-.48 5.62 5.62 0 0 0 1.96-1.26 5.554 5.554 0 0 0 1.271-1.94c.305-.8.468-1.645.485-2.5 0-1 .06-1.3.06-3.76s0-2.78-.06-3.76Zm-2.02 7.43a5.95 5.95 0 0 1-.353 1.86c-.179.472-.462.9-.828 1.25-.352.363-.784.64-1.262.81a5.856 5.856 0 0 1-1.889.36c-.949 0-1.242.05-3.695.05H6.422a6.112 6.112 0 0 1-1.889-.35 3.436 3.436 0 0 1-1.262-.82 3.257 3.257 0 0 1-.818-1.25 5.69 5.69 0 0 1-.363-1.86V6.38a5.81 5.81 0 0 1 .363-1.87c.175-.47.454-.893.818-1.24.352-.363.784-.64 1.262-.81a5.857 5.857 0 0 1 1.889-.36C7.37 2 7.664 2 10.118 2h3.696c.648.016 1.29.138 1.898.36.474.173.902.45 1.252.81.367.349.647.776.818 1.25.247.609.387 1.255.414 1.91 0 1 .05 1.25.05 3.67s-.05 2.71-.05 3.67h-.06Z" fill="#6B7280"/></svg>
